X: 1
T:Nyth y Gog
T:The Cuckoo's Nest
M:C
L:1/8
Q:190
C:Trad
S:Cat's Claw
R:Welsh Hornpipe
A:Wales
Z:brian_martin12345@yahoo.com
K:Em
BA|GFGFE2 ge|dBAG FAGF|GFGA BABc|d2A2A2BA |
GFGFE2 ge|dBAG FAGF|GFGA BcBA|G2E2E2:||
B2|e^def egfe|d2B2B3A|GBdB GBdB|c2A2A2B2|
e^def egfe|d2B2B2BA|GFGA  BcBA|G2E2E2:||
GA|BGEG BGEG|BGBGE2FG|AFDF AFDF|AFAFD2EF|
GFGFE2 ge|dBAG FAGF|GFGA BcBA|G2E2E2:||

